X:1
T:Sipping Cider
M:4/4
L:1/4
K:F
 c/2d/2 c/2| A3/2- A A/2_A/2 =A/2| F3/2- F F/2E/2 F/2| G3/2- G c/2d/2 c/2|\
 A3/2- A| c/2d/2 e/2| f c B A| d3/2- d d/2e/2 d/2| c B A G| F3/2- F||\
